!!!!SEGMENT: pl-kk--kk-i-81--002_anonim--missa-pastoralis-et-in-terra.krn
!!!cenid: 17xx:2304
!!!COM: Anonim
!!!COM-rism: pe30004985
!!!CDT:
!!!CNT:
!!!OTL: Missa Pastoralis – Et in terra
!!!PDT:
!!!AGN: Sacred; Mass
!!!SMS-siglum: PL-Kk
!!!SMS-shelfmark: Kk.I.81
!!!NIFC-rismID: 1001155824
!!!URL-scan: http://repozytorium.nifc.pl/skany/pl-kk-nut--i-81
!!!ONB-nifc: UWAGA: części Mszy: 1. Kyrie, 2. Et in terra, 3. Sanctus, 4. Benedictus, 5. Agnus Dei.
!!!SMS-variant:
!!!SMS-altvar:
**kern	**text	**kern	**text	**kern	**text	**kern	**text	**kern	**text
*part5	*part5	*part4	*part4	*part3	*part3	*part2	*part2	*part1	*part1
*staff5	*staff5	*staff4	*staff4	*staff3	*staff3	*staff2	*staff2	*staff1	*staff1
*I"Baſso eripieno	*	*I"Baſso	*	*I"Tenore	*	*I"Alto	*	*I"Canto	*
*I'B rip	*	*I'B	*	*I'T	*	*I'A	*	*I'S	*
*clefF4	*	*clefF4	*	*clefC4	*	*clefC3	*	*clefC1	*
*k[]	*	*k[]	*	*k[]	*	*k[]	*	*k[]	*
*M2/2	*	*M2/2	*	*M2/2	*	*M2/2	*	*M2/2	*
*met(c|)	*	*met(c|)	*	*met(c|)	*	*met(c|)	*	*met(c|)	*
=1	=1	=1	=1	=1	=1	=1	=1	=1	=1
*	*	*	*	*2\right	*	*2\right	*	*	*
!LO:TX:a:B:t=allo	!	!LO:TX:a:B:t=allȏ	!	!LO:TX:a:Bi:t=Allo.	!	!	!	!LO:TX:a:B:t=allȏ	!
2C/	Et	2C/	Et	2c\	Et	2g\	Et	2e/	Et
2E/	in	2E/	in	2c\	in	2g\	in	2e/	in
=2	=2	=2	=2	=2	=2	=2	=2	=2	=2
*2\right	*	*2\right	*	*	*	*	*	*	*
2G\	ter-	2G\	ter-	2c\	ter-	2g\	ter-	2e/	ter-
2B\	-ra	2B\	-ra	2G/	-ra	2d\	-ra	2f/	-ra
=3	=3	=3	=3	=3	=3	=3	=3	=3	=3
2c\	pax	2c\	pax	2c\	pax	2g\	pax	2e/	pex
2A\	ho-	2A\	ho-	2c\	ho-	2f\	ho-	2a/	ho-
=4	=4	=4	=4	=4	=4	=4	=4	=4	=4
*	*	*	*	*	*	*	*	*2\right	*
2F\	-mi-	2F\	-mi-	2c\	-mi-	2a\	-mi-	2b\	-mi-
2G\	-ni-	2G\	-ni-	2B\	-ni-	2g\	-ni-	2dd\	-ni-
=5	=5	=5	=5	=5	=5	=5	=5	=5	=5
2C/	-bus	2C/	-bus	2c\	-bus	2g\	-bus	2ee\	-bus
4G\	bo-	4G\	bo-	4B\	bo-	4f\	bo-	4dd\	bo-
4C/	-nae	4C/	-nae	4c\	-nae	4g\	-nae	4ee\	-nae
=6	=6	=6	=6	=6	=6	=6	=6	=6	=6
4F\	vo-	4F\	vo-	4B\	vo-	2g\	vo-	4dd\	vo-
4E\	.	4E\	.	4e\	.	.	.	4cc\	.
4D\	-lun-	4D\	-lun-	4d\	-lun-	2g\	-lun-	4b\	-lun-
4F\	.	4F\	.	4c\	.	.	.	4dd\	.
=7	=7	=7	=7	=7	=7	=7	=7	=7	=7
8G\L	-ta-	8G\L	-ta-	2c\	-ta-	1g	-ta-	8ee\L	-ta-
8F\	.	8F\	.	.	.	.	.	8dd\	.
8E\	.	8E\	.	.	.	.	.	8cc\	.
8F\J	.	8F\J	.	.	.	.	.	8dd\J	.
4G\	.	4G\	.	2B\	.	.	.	4ee\	.
4GG/	.	4GG/	.	.	.	.	.	4dd\	.
=8	=8	=8	=8	=8	=8	=8	=8	=8	=8
2C/	-tis	2C/	-tis	2c\	-tis	2g\	-tis	2ee\	-tis
2C/	lau-	2C/	lau-	2G/	lau-	4e\	lau-	4cc\	lau-
.	.	.	.	.	.	4f\	.	4dd\	.
!	!	!LO:LB:g=original	!	!	!	!	!	!	!
=9	=9	=9	=9	=9	=9	=9	=9	=9	=9
2C/	-da-	(2C/	-da-	2c\	-da-	2g\	-da-	2ee\	-da-
4BB/	.	4BB/)	.	2G/	-mus	4f\	-mus	4dd\	-mus
4C/	-mus	4C/	-mus	.	.	4e\	.	4cc\	.
!LO:LB:g=original	!	!	!	!	!	!	!	!LO:LB:g=original	!
=10	=10	=10	=10	=10	=10	=10	=10	=10	=10
2GG/	te	2GG/	te	2G/	te	2f 2d\	te	2dd\	te
2GG/	lau-	2GG/	lau-	4B\	lau-	2d\	lau-	4dd\	lau-
.	.	.	.	4c\	.	.	.	4ee\	.
!	!	!	!	!LO:LB:g=original	!	!LO:LB:g=original	!	!	!
=11	=11	=11	=11	=11	=11	=11	=11	=11	=11
2GG/	-da-	2GG/	-da-	2d\	-da-	2d\	-da-	2ff\	-da-
2GG/	-mus	2GG/	-mus	4c\	-mus	2d\	-mus	4ee\	-mus
.	.	.	.	4B\	.	.	.	4dd\	.
=12	=12	=12	=12	=12	=12	=12	=12	=12	=12
2C/	te	2C/	te	2G/	te	2e\	te	2cc\	te
4C/	be-	4C/	be-	4G/	be-	4e\	be-	2r	.
4C/	-ne-	4C/	-ne-	4G/	-ne-	4e\	-ne-	.	.
=13	=13	=13	=13	=13	=13	=13	=13	=13	=13
2E/	-di-	2E/	-di-	2c\	-di-	2g\	-di-	0r	.
4C/	-ci-	4C/	-ci-	4G/	-ci-	4e\	-ci-	.	.
4C/	-mus	4C/	-mus	4G/	-mus	4e\	-mus	.	.
=14	=14	=14	=14	=14	=14	=14	=14	=14	=14
2G\	te	2G\	te	2B\	te	2d\	te	.	.
4G\	a-	4G\	a-	4B\	a-	4d\	a-	.	.
4G\	-do-	4G\	-do-	4B\	-do-	4d\	-do-	.	.
=15	=15	=15	=15	=15	=15	=15	=15	=15	=15
2B\	-ra-	2B\	-ra-	2G\	-ra-	2f\	-ra-	1r	.
2G\	-mus	2G\	-mus	2B\	-mus	2d\	-mus	.	.
=16	=16	=16	=16	=16	=16	=16	=16	=16	=16
2c\	te	2c\	te	2G/	te	2e\	te	2r	.
2G\	glo-	2G\	glo-	2G/	glo-	2g\	glo-	2g/	glo-
=17	=17	=17	=17	=17	=17	=17	=17	=17	=17
2E\	-ri-	2E\	-ri-	2E/	-ri-	2e\	-ri-	2e/	-ri-
2A\	-fi-	2A\	-fi-	2A/	-fi-	2a\	-fi-	2a\	-fi-
=18	=18	=18	=18	=18	=18	=18	=18	=18	=18
2F\	-ca-	2F\	-ca-	2F/	-ca-	2f\	-ca-	2f/	-ca-
2G\	-mus	2G\	-mus	2G/	-mus	2g\	-mus	2g/	-mus
=19	=19	=19	=19	=19	=19	=19	=19	=19	=19
1C	te	1C	te	1c	te	1g	te	1e	te
!	!	!LO:PB:g=original	!	!	!	!	!	!	!
=20	=20	=20	=20	=20	=20	=20	=20	=20	=20
4C/	gra-	4C/	gra-	4G/	Gra-	4e\	Gra-	4cc\	Gra-
4E/	-ti-	4E/	-ti-	4G/	-ti-	4e\	-ti-	4cc\	-ti-
2G\	-as	2G\	-as	2G/	-as	2d\	-as	2b\	-as
!LO:LB:g=original	!	!	!	!	!	!	!	!	!
=21	=21	=21	=21	=21	=21	=21	=21	=21	=21
4C/	a-	4C/	a-	4G/	a-	4e\	a-	4cc\	a-
4C/	-gi-	4C/	-gi-	4G/	-gi-	4e\	-gi-	4cc\	-gi-
2GG/	-mus	2GG/	-mus	2G/	-mus	2d\	-mus	2b\	-mus
!	!	!	!	!LO:LB:g=original	!	!LO:PB:g=original	!	!	!
=22	=22	=22	=22	=22	=22	=22	=22	=22	=22
4C/	a-	(4C/	a-	2G/	a-	4e\	a-	(4cc\	a-
4D/	.	4D/)	.	.	.	4f\	.	4b\)	.
4E/	-gi-	4E/	-gi-	4G/	-gi-	4g\	-gi-	4cc\	-gi-
4C/	-mus	4C/	-mus	4G/	-mus	4e\	-mus	4cc\	-mus
!	!	!	!	!	!	!	!	!LO:LB:g=original	!
=23	=23	=23	=23	=23	=23	=23	=23	=23	=23
2G\	ti-	2G\	ti-	2G/	ti-	2d\	ti-	2b\	ti-
2GG/	-bi	2GG/	-bi	2G/	-bi	2d\	-bi	2b\	-bi
=24	=24	=24	=24	=24	=24	=24	=24	=24	=24
4G\	a-	(4G\	a-	4B\	a-	2g\	a-	2dd\	a-
4A\	.	4A\)	.	4c\	.	.	.	.	.
4B\	-gi-	4B\	-gi-	4d\	-gi-	4g\	-gi-	4dd\	-gi-
4G\	-mus	4G\	-mus	4B\	-mus	4g\	-mus	4dd\	-mus
=25	=25	=25	=25	=25	=25	=25	=25	=25	=25
2c\	ti-	2c\	ti-	2e\	ti-	2g\	ti-	2cc\	ti-
2C/	-bi	2C/	-bi	2e\	-bi	2g\	-bi	2cc\	-bi
=26	=26	=26	=26	=26	=26	=26	=26	=26	=26
2A\	p(ro)-	2A\	p(ro)-	2c\	p(ro)-	2e\	p(ro)-	2a\	p(ro)-
2E\	-pter	2E\	-pter	2B\	-pter	2e\	-pter	2g#X\	-pter
=27	=27	=27	=27	=27	=27	=27	=27	=27	=27
2A\	ma-	2A\	ma-	2c\	ma-	2e\	ma-	2a\	ma-
!	!	!	!	!	!	!	!	!LO:SIC:v:s=2g#\	!
2E\	-gnam	2E\	-gnam	2B\	-gna(m)	2e\	-gnam	2g\	-gna(m)
=28	=28	=28	=28	=28	=28	=28	=28	=28	=28
4A\	glo-	(4A\	glo-	(4c\	glo-	2e\	glo-	(4a\	glo-
!	!	!	!	!	!	!	!	!LO:SIC:v:s=4g#\)	!
4B\	.	4B\)	.	4B\)	.	.	.	4g\)	.
4c\	-ri-	4c|\	-ri-	8A\L	-ri-	4e\	-ri-	4a\	-ri-
.	.	.	.	8B\	.	.	.	.	.
4d\	-am	4d|\	-am	8c|\	-am	4f\	-am	4a\	-am
.	.	.	.	8A|\J	.	.	.	.	.
!	!	!LO:LB:g=original	!	!	!	!	!	!	!
=29	=29	=29	=29	=29	=29	=29	=29	=29	=29
2e\	tu-	2e\	tu-	2B\	tu-	2e\	tu-	2g#X\	tu-
2E\	-am	2E/	-am	2B\	-am	2e\	-am	2g#\	-am
=30	=30	=30	=30	=30	=30	=30	=30	=30	=30
2C/	p(ro)-	2C/	p(ro)-	2G/	p(ro)-	2e\	p(ro)-	2cc\	p(ro)-
2G\	-pter	2G\	-pter	2G/	-pter	2d\	-pter	2b\	-pter
=31	=31	=31	=31	=31	=31	=31	=31	=31	=31
2C/	ma-	2C/	ma-	2G/	ma-	2e\	ma-	2cc\	ma-
2GG/	-gn(am)	2GG/	-gna(m)	2G/	-gnam	2d\	-gnam	2b\	-gna(m)
!	!	!	!	!LO:PB:g=original	!	!LO:LB:g=original	!	!	!
=32	=32	=32	=32	=32	=32	=32	=32	=32	=32
*	*	*	*	*	*	*	*	*	*ij
4C/	glo-	4C/	glo-	2G/	glo-	4e\	ma-	4cc\	p(ro)-
4D/	.	4D/	.	.	.	4f\	.	4dd\	-pter
4E/	-ri-	4E/	-ri-	4G/	-ri-	4e\	-gnam	4cc\	ma-
4F/	-am	4F/	-am	4G/	-am	4d\	.	4b\	-gnam
*	*	*	*	*	*	*	*	*	*Xij
!LO:PB:g=original	!	!	!	!	!	!	!	!	!
=33	=33	=33	=33	=33	=33	=33	=33	=33	=33
*	*	*	*	*	*ij	*	*	*	*
2G\	glo-	2G\	glo-	2B\	glo-	2f\	glo-	2b\	glo-
4C/	-ri-	4C/	-ri-	4G/	-ri-	4e\	-ri-	4cc\	-ri-
4C/	-am	4C/	-am	4G/	-am	4e\	-am	4cc\	-am
*	*	*	*	*	*Xij	*	*	*	*
!	!	!	!	!	!	!	!	!LO:PB:g=original	!
=34	=34	=34	=34	=34	=34	=34	=34	=34	=34
!	!	!	!	!LO:TX:a:t=P:problem:♮ above	!	!	!	!	!
2G\	tu-	2G\	tu-	2Fn/	tu-	1d	tu-	2cc\	tu-
2GG/	.	2GG/	.	2G/	.	.	.	2b\	.
=35	=35	=35	=35	=35	=35	=35	=35	=35	=35
1C	-am	1C	-am	1G	-am	1e	-am	1cc	-am
!	!	!LO:LB:g=original	!	!	!	!	!	!	!
=36||	=36||	=36||	=36||	=36||	=36||	=36||	=36||	=36||	=36||
*M3/2	*	*M3/2	*	*M3/2	*	*M3/2	*	*M3/2	*
!LO:TX:a:B:t=allȏ	!	!LO:TX:a:B:t=allȏ	!	!	!	!	!	!	!
2C/	Do-	2C/	Do-	2G/	Do-	4g\	Do-	(4ee\	Do-
.	.	.	.	.	.	4a\	.	4ff\)	.
2C/	-mi-	2C/	-mi-	2G/	-mi-	4g\	-mi-	(4ee\	-mi-
.	.	.	.	.	.	4e\	.	4cc\)	.
2C/	-ne	2C/	-ne	2G/	-ne	4f\	-ne	(4dd\	-ne
.	.	.	.	.	.	4d\	.	4b\)	.
=37	=37	=37	=37	=37	=37	=37	=37	=37	=37
1C	De-	1C	De-	1G	De-	1e	De-	1cc	De-
2GG/	-us	2GG/	-us	2B\	-us	2f\	-us	2dd\	-us
=38	=38	=38	=38	=38	=38	=38	=38	=38	=38
2C/	Rex	(2C/	Rex	1G	Rex	4g\	Rex	4ee\	Rex
.	.	.	.	.	.	4a\	.	4ff\	.
2E/	.	2E/)	.	.	.	4g\	.	4ee\	.
.	.	.	.	.	.	4e\	.	4cc\	.
2G/	cae-	2G\	cae-	2G/	Cae-	4f\	Cae-	4dd\	Cae-
.	.	.	.	.	.	4d\	.	4b\	.
=39	=39	=39	=39	=39	=39	=39	=39	=39	=39
1C	-le-	1C	-le-	1G	-le-	1e	-le-	1cc	-le-
2GG/	-stis	2GG/	-stis	2B\	-stis	2f\	-stis	2dd\	-stis
!	!	!	!	!	!	!LO:LB:g=original	!	!	!
=40	=40	=40	=40	=40	=40	=40	=40	=40	=40
2G\	De-	(2G\	De-	2G/	De-	2g\	De-	(2gg\	De-
2E\	.	2E\)	.	2E/	.	2e\	.	2ee\)	.
2C/	-us	2C/	-us	2C/	-us	2c\	-us	2cc\	-us
=41	=41	=41	=41	=41	=41	=41	=41	=41	=41
1GG	Pa-	1GG	Pa-	1G	Pa-	1d	Pa-	1b	Pa-
2C/	-ter	2C/	-ter	2G/	-ter	2e\	-ter	2cc\	-ter
!	!	!	!	!LO:LB:g=original	!	!	!	!	!
=42	=42	=42	=42	=42	=42	=42	=42	=42	=42
4D\	om-	(4D\	om-	2G/	om-	4f\	om-	4dd\	om-
4F\	.	4F\)	.	.	.	4e\	.	4cc\	.
2G\	-ni-	2G\	-ni-	2G/	-ni-	2.d\	-ni-	2cc\	-ni-
!	!	!	!	!	!	!	!	!LO:LB:g=original	!
2GG/	-po-	2GG/	-po-	2G/	-po-	.	.	2b\	-po-
.	.	.	.	.	.	4d\	-po-	.	.
!LO:LB:g=original	!	!	!	!	!	!	!	!	!
=43	=43	=43	=43	=43	=43	=43	=43	=43	=43
1.C	-tens	1.C	-tens	1.G	-tens	1.e	-tens	1.cc	-tens
!	!	!LO:LB:g=original	!	!	!	!	!	!	!
=44	=44	=44	=44	=44	=44	=44	=44	=44	=44
2GG/	do-	2GG/	Do-	2G/	Do-	2B/	Do-	2dd\	Do-
2BB/	-mi-	2BB/	-mi-	2G/	-mi-	2B/	-mi-	2dd\	-mi-
2C/	-ne	2C/	-ne	2G/	-ne	2c/	-ne	2cc\	-ne
=45	=45	=45	=45	=45	=45	=45	=45	=45	=45
2D/	Fi-	(2D/	Fi-	1G	Fi-	1d	Fi-	1ff	Fi-
2BB/	.	2BB/)	.	.	.	.	.	.	.
2C/	-li	2C/	-li	2G/	-li	2c\	-li	2ee\	-li
=46	=46	=46	=46	=46	=46	=46	=46	=46	=46
2GG/	u-	(2GG/	u-	1G	u-	1f	u-	1dd	u-
2BB/	.	2BB/)	.	.	.	.	.	.	.
2C/	-ni-	2C/	-ni-	2G/	-ni-	2e\	-ni-	2cc\	-ni-
=47	=47	=47	=47	=47	=47	=47	=47	=47	=47
2D\	-ge-	2D\	-ge-	2G/	-ge-	2f\	-ge-	[2dd\	-ge-
2G\	-ni-	2G\	-ni-	2G/	-ni-	4f\	.	4dd\]	.
.	.	.	.	.	.	4d\	ni-	4b\	-ni-
2C/	-te	2C/	-te	2G/	-te	2e\	-te	2cc\	-te
=48	=48	=48	=48	=48	=48	=48	=48	=48	=48
1c	Je-	1c	Je-	0.r	.	0.r	.	1ee	Je-
2B\	-su	2B\	-su	.	.	.	.	2dd\	-su
=49	=49	=49	=49	=49	=49	=49	=49	=49	=49
*	*ij	*	*ij	*	*	*	*	*	*ij
1A	Je-	1A	Je-	.	.	.	.	1cc	Je-
2G\	-su	2G\	-su	.	.	.	.	2b\	-su
*	*Xij	*	*Xij	*	*	*	*	*	*Xij
!	!	!	!	!	!	!LO:LB:g=original	!	!	!
=50	=50	=50	=50	=50	=50	=50	=50	=50	=50
4A\	Je-	4A\	Je-	4F#X/	Je-	4e\	Je-	4cc\	Je-
4G\	-su	4G\	-su	4G/	-su	4d\	-su	4b\	-su
1D	Chri-	1D	Chri-	2G/	Chri-	1d	Chri-	1a	Chri-
.	.	.	.	2F#/	.	.	.	.	.
=51	=51	=51	=51	=51	=51	=51	=51	=51	=51
!	!	!	!	!	!	!	!	!LO:SIC:v:t=custos g	!
1.G	-ste	1.G	-ste	1.G	-ste	1.d	-ste	1.b	-ste
!	!	!	!	!	!	!	!	!LO:LB:g=original	!
=52	=52	=52	=52	=52	=52	=52	=52	=52	=52
2C/	do-	2C/	Do-	2B-X/	Do-	2e\	Do-	2g\	Do-
2C/	-mi-	2C/	-mi-	2B-/	-mi-	2e\	-mi-	2g\	-mi-
2E/	-ne	2E/	-ne	2G/	-ne	2g\	-ne	2b-X\	-ne
!LO:LB:g=original	!	!LO:LB:g=original	!	!	!	!	!	!	!
=53	=53	=53	=53	=53	=53	=53	=53	=53	=53
2F\	De-	2F\	De-	1c	De-	2f\	De-	(2a\	De-
2C/	.	2C/	.	.	.	2e\	.	2g\)	.
2F\	-us	2F\	-us	2c\	-us	2f\	-us	2a\	-us
!	!	!	!	!LO:LB:g=original	!	!	!	!	!
=54	=54	=54	=54	=54	=54	=54	=54	=54	=54
1D	A-	1D	A-	1c	A-	2f#X\	A-	2a\	A-
.	.	.	.	.	.	2g\	.	2bn\	.
2F#X\	-gnus	2F#X\	-gnus	2c\	-gnus	2a\	-gnus	2cc\	-gnus
=55	=55	=55	=55	=55	=55	=55	=55	=55	=55
2G\	De-	2G\	De-	1d	De-	2g\	De-	(2b\	De-
!	!	!	!	!	!	!LO:SIC:v:s=2f#\	!	!	!
2D\	.	2D\	.	.	.	2f\	.	2a\	.
2GG/	-i	2GG/	-i	2d\	-i	2g\	-i	2b\)	-i
=56	=56	=56	=56	=56	=56	=56	=56	=56	=56
2.BB/	Fi-	2.BB/	Fi-	2.G/	Fi-	2.fn\	Fi-	2.dd\	Fi-
4BB/	-li-	4BB/	-li-	4G/	-li-	4f\	-li-	4dd\	-li-
2C/	-us	2C/	-us	2G/	-us	2e\	-us	2cc\	-us
=57	=57	=57	=57	=57	=57	=57	=57	=57	=57
2F\	Pa-	2F\	Pa-	2A\	Pa-	2f\	Pa-	2dd\	Pa-
2G\	.	2G\	.	1G	.	1d	.	1b	.
2GG/	.	2GG/	.	.	.	.	.	.	.
!	!	!	!	!	!	!LO:LB:g=original	!	!	!
=58	=58	=58	=58	=58	=58	=58	=58	=58	=58
1C	-tris	1C	-tris	1G	-tris	1e	-tris	1cc	-tris
2C/	Qui	2C/	Qui	2G/	qui	2e\	qui	2cc\	qui
=59	=59	=59	=59	=59	=59	=59	=59	=59	=59
2GG/	tol-	2GG/	tol-	2F/	tol-	2d\	tol-	2b\	tol-
2GG/	-lis	2GG/	-lis	2F/	-lis	2d\	-lis	2b\	-lis
2C/	pec-	2C/	pec-	2G/	pec-	2e\	pec-	2cc\	pec-
=60	=60	=60	=60	=60	=60	=60	=60	=60	=60
1BB	-ca-	1BB	-ca-	1G	-ca-	1f	-ca-	1dd	-ca-
2C/	-ta	2C/	-ta	2G/	-ta	2e\	-ta	2cc\	-ta
=61	=61	=61	=61	=61	=61	=61	=61	=61	=61
1.GG	mun-	1.GG	mun-	(>1G	mun-	2f\	mun-	2dd\	mun-
.	.	.	.	.	.	2e\	.	2cc\	.
.	.	.	.	2F#X/)	.	2d\	.	2b\	.
!	!	!	!	!	!	!	!	!LO:LB:g=original	!
=62	=62	=62	=62	=62	=62	=62	=62	=62	=62
1C	-di	1C	-di	2G/	-di	1e	-di	1cc	-di
.	.	.	.	2r	.	.	.	.	.
4c\	mi-	4c\	mi-	4G/	mi-	2r	.	4ee\	mi-
4B\	-se-	4B\	-se-	4G/	-se-	.	.	4dd\	-se-
!LO:LB:g=original	!	!	!	!	!	!	!	!	!
=63	=63	=63	=63	=63	=63	=63	=63	=63	=63
1A	-re-	1A	-re-	1F#X	-re-	0.r	.	1cc	-re-
2G\	-re	2G\	-re	2G/	-re	.	.	2b\	-re
!	!	!LO:LB:g=original	!	!LO:LB:g=original	!	!	!	!	!
=64	=64	=64	=64	=64	=64	=64	=64	=64	=64
2c\	no-	2c\	no-	1G	no-	.	.	1.a	no-
2d\	.	2d\	.	.	.	.	.	.	.
2D/	.	2D/	.	2F#X/	.	.	.	.	.
=65	=65	=65	=65	=65	=65	=65	=65	=65	=65
1G	-bis	1G	-bis	2G/	-bis	2r	.	1b	-bis
.	.	.	.	2r	.	2r	.	.	.
2r	.	2r	.	2ryy	.	2g\	qui	2g\	qui
=66	=66	=66	=66	=66	=66	=66	=66	=66	=66
1.r	.	1.r	.	1.r	.	1f#X	tol-	1a	tol-
.	.	.	.	.	.	2fn\	-lis	2b\	-lis
=67	=67	=67	=67	=67	=67	=67	=67	=67	=67
2C/	pec-	2C/	pec-	2G/	pec-	2e\	pec-	2cc\	pec-
2C/	-ca-	2C/	-ca-	2G/	-ca-	2e\	-ca-	2cc\	-ca-
2C/	-ta	2C/	-ta	2G/	-ta	2e\	-ta	2cc\	-ta
!	!	!	!	!	!	!LO:LB:g=original	!	!	!
=68	=68	=68	=68	=68	=68	=68	=68	=68	=68
1.F#X	mun-	1.F#X	mun-	1.d	mun-	1.a	mun-	1.cc	mun-
=69	=69	=69	=69	=69	=69	=69	=69	=69	=69
1.G	-di	1.G	-di	1.d	-di	1.g	-di	1.b	-di
=70||	=70||	=70||	=70||	=70||	=70||	=70||	=70||	=70||	=70||
*M2/2	*	*M2/2	*	*M2/2	*	*M2/2	*	*M2/2	*
*met(c|)	*	*met(c|)	*	*met(c|)	*	*met(c|)	*	*met(c|)	*
!	!	!LO:TX:a:B:t=and&colon;	!	!LO:TX:a:B:t=and&colon;	!	!	!	!	!
4C/	Su-	4C\	Su-	2.G/	Su-	2.e\	Su-	2.cc\	Su-
4E/	.	4E\	.	.	.	.	.	.	.
4G/	-sci-	4G\	-sci-	.	.	.	.	.	.
4E/	.	4E\	.	4G/	-sci-	4e\	-sci-	4cc\	-sci-
=71	=71	=71	=71	=71	=71	=71	=71	=71	=71
2C/	-pe	2C/	-pe	2G/	-pe	2e\	-pe	2cc\	-pe
4C/	de-	4C/	de-	4G/	de-	4e\	de-	4cc\	de-
4C/	-pre-	4C/	-pre-	4G/	-pre-	4e\	-pre-	4cc\	-pre-
!LO:LB:g=original	!	!	!	!	!	!	!	!LO:LB:g=original	!
=72	=72	=72	=72	=72	=72	=72	=72	=72	=72
4GG/	-ca-	4GG/	-ca-	2.G/	-ca-	2.f\	-ca-	2.dd\	-ca-
4BB/	.	4BB/	.	.	.	.	.	.	.
4D/	.	4D/	.	.	.	.	.	.	.
4G/	ti-	4G/	ti-	4G/	-ti-	4f\	-ti-	4dd\	-ti-
=73	=73	=73	=73	=73	=73	=73	=73	=73	=73
2GG/	-o-	2GG/	-o-	2G/	-o-	2f\	-o-	2dd\	-o-
2C/	-nem	2C/	-nem	2G/	-nem	2e\	-nem	2cc\	-nem
!	!	!LO:LB:g=original	!	!LO:LB:g=original	!	!	!	!	!
=74	=74	=74	=74	=74	=74	=74	=74	=74	=74
2G\	no-	2G\	no-	1G	no-	2e\	nos-	2cc\	nos-
2GG/	.	2GG/	.	.	.	2d\	.	2b\	.
=75	=75	=75	=75	=75	=75	=75	=75	=75	=75
1C	-stram	1C	-stram	1G	-stram	1e	-tram	1cc	-tram
=76	=76	=76	=76	=76	=76	=76	=76	=76	=76
4C/	qui	4C/	qui	2c\	qui	2e\	qui	2g/	qui
4c\	.	4c\	.	.	.	.	.	.	.
4G\	Se-	4G\	Se-	2G/	se-	2e\	se-	2cc\	se-
4E\	.	4E\	.	.	.	.	.	.	.
=77	=77	=77	=77	=77	=77	=77	=77	=77	=77
2C/	-des	2C/	-des	2G/	-des	2e\	-des	2cc\	-des
2r	.	2r	.	2r	.	4d\	ad	4b\	ad
.	.	.	.	.	.	4c\	.	4a\	.
!	!	!	!	!	!	!LO:LB:g=original	!	!	!
=78	=78	=78	=78	=78	=78	=78	=78	=78	=78
0r	.	0r	.	0r	.	4B/	dex-	4g/	dex-
.	.	.	.	.	.	4A/	-te-	4f/	.
.	.	.	.	.	.	4G/	-ram	4e/	-te-
.	.	.	.	.	.	4F/	.	4d/	-ram
=79	=79	=79	=79	=79	=79	=79	=79	=79	=79
.	.	.	.	.	.	2E/	Pa-	2c/	Pa-
.	.	.	.	.	.	2E/	-tris	2c/	-tris
=80	=80	=80	=80	=80	=80	=80	=80	=80	=80
2C/	mi-	2C/	mi-	2c\	mi-	2e\	mi-	2cc\	mi-
2c\	-se-	2c\	-se-	2c\	-se-	2g\	-se-	2ee\	-se-
=81	=81	=81	=81	=81	=81	=81	=81	=81	=81
2G\	-re-	2G\	-re-	2B\	-re-	2f\	-re-	2dd\	-re-
2C/	-re	2C/	-re	2c\	-re	2e\	-re	2cc\	-re
=82	=82	=82	=82	=82	=82	=82	=82	=82	=82
*	*ij	*	*ij	*	*ij	*	*ij	*	*ij
2GG/	mi-	2GG/	mi-	2G/	mi-	2d\	mi-	2b\	mi-
2G\	-se-	2G\	-se-	2G/	-se-	2f\	-se-	2dd\	-se-
=83	=83	=83	=83	=83	=83	=83	=83	=83	=83
!LO:TX:a:t=c	!	!LO:TX:a:t=c	!	!	!	!	!	!	!
2C\	-re-	2C\	-re-	2F#X/	-re-	2e\	-re-	2cc\	-re-
2GG/	-re	2GG/	-re	2G/	-re	2d\	-re	2b\	-re
*	*Xij	*	*Xij	*	*Xij	*	*Xij	*	*Xij
!	!	!	!	!	!	!	!	!LO:LB:g=original	!
=84	=84	=84	=84	=84	=84	=84	=84	=84	=84
!	!	!	!	!LO:SIC:v:s=4F#/	!	!	!	!	!
2C/	no-	2C/	no-	4F/	no-	1d	mi-	4a\	no-
.	.	.	.	4A/	.	.	.	4cc\	.
2D/	.	2D/	.	4G/	.	.	.	4b\	.
!	!	!	!	!LO:SIC:v:s=4F#/	!	!	!	!	!
.	.	.	.	4F/	.	.	.	4a\	.
!LO:LB:g=original	!	!	!	!	!	!	!	!	!
=85	=85	=85	=85	=85	=85	=85	=85	=85	=85
2GG/	-bis	2GG/	-bis	2G/	-bis	2d\	-se-	2b\	-bis
4C/	mi-	4C/	mi-	4G/	mi-	4e\	-re-	4cc\	mi-
4C/	-ſe-	4C/	-ſe-	4G/	-se-	4e\	-re	4cc\	-se-
=86	=86	=86	=86	=86	=86	=86	=86	=86	=86
2C/	-re-	2C/	-re-	2A/	-re-	2f\	no-	2cc\	-re-
2C/	-re	2C/	-re	2G/	-re	2e\	.	2cc\	-re
!	!	!	!	!LO:LB:g=original	!	!	!	!	!
=87	=87	=87	=87	=87	=87	=87	=87	=87	=87
1C	no-	1C	no-	1A	no-	1f	.	1cc	no-
=88	=88	=88	=88	=88	=88	=88	=88	=88	=88
1C	-bis	1C	-bis	1G	-bis	1e	-bis	1cc	-bis
!	!	!LO:LB:g=original	!	!	!	!	!LO:LB:g=original	!	!
=89||	=89||	=89||	=89||	=89||	=89||	=89||	=89||	=89||	=89||
*M3/2	*	*M3/2	*	*M3/2	*	*M3/2	*	*M3/2	*
!	!	!LO:TX:a:B:t=allo	!	!LO:TX:a:Bi:t=allo	!	!	!	!	!
2.C/	Quo-	2.C/	Quo-	2.G/	Quo-	2.e\	Quo-	2.cc\	Quo-
4C/	-ni-	4C/	-ni-	4G/	-ni-	4e\	-ni-	4cc\	-ni-
2GG/	-am	2GG/	-am	2G/	-am	2f\	-am	2dd\	-am
=90	=90	=90	=90	=90	=90	=90	=90	=90	=90
2C/	tu	2C/	tu	2G/	tu	4g\	tu	4ee\	tu
.	.	.	.	.	.	4f\	.	4cc\	.
2F\	So-	2F\	So-	2G/	So-	4a\	So-	4ff\	So-
.	.	.	.	.	.	4f\	.	4dd\	.
2G\	-lus	2G\	-lus	2G/	-lus	4e\	-lus	4cc\	-lus
.	.	.	.	.	.	4d\	.	4b\	.
=91	=91	=91	=91	=91	=91	=91	=91	=91	=91
1C	san-	1C	San-	1G	San-	1e	San-	1cc	San-
2C/	-ctus	2C/	-ctus	2G/	-ctus	2e\	-ctus	2cc\	-ctus
!	!	!	!	!	!	!	!	!LO:LB:g=original	!
=92	=92	=92	=92	=92	=92	=92	=92	=92	=92
(4E\	tu	(4E\	tu	4G/	tu	2g\	tu	2cc\	tu
4C\)	.	4C\)	.	4E/	.	.	.	.	.
(4F\	So-	(4F\	so-	4A/	So-	2g\	so-	2f/	so-
4D\)	.	4D\)	.	4F/	.	.	.	.	.
(4C\	-lus	(4C\	-lus	4E/	-lus	2g\	-lus	2g/	-lus
4BB\)	.	4BB\)	.	4D/	.	.	.	.	.
!LO:LB:g=original	!	!	!	!	!	!	!	!	!
=93	=93	=93	=93	=93	=93	=93	=93	=93	=93
2.C/	Do-	2.C/	Do-	2.E/	Do-	2.g\	Do-	2.cc\	Do-
4C/	-mi-	4C/	-mi-	4E/	-mi-	4g\	-mi-	4cc\	-mi-
2C/	-nus	2C/	-nus	2E/	-nus	2g\	-nus	2cc\	-nus
=94	=94	=94	=94	=94	=94	=94	=94	=94	=94
2G\	tu	2G\	tu	2G/	tu	2g\	tu	2g/	tu
2G\	so-	2G\	So-	2G/	So-	2g\	So-	2g/	so-
4E/	-lus	4E\	-lus	4E/	-lus	4e\	-lus	4e/	-lus
4C/	al-	4C\	al-	4E/	al-	4e\	al-	4e/	al-
!	!	!	!	!LO:LB:g=original	!	!	!	!	!
=95	=95	=95	=95	=95	=95	=95	=95	=95	=95
2.GG/	-tiſ-	2.GG/	-tiſ-	2.G/	-tiſ-	2.f\	-tiſ-	2.d/	-tiſ-
4GG/	-si-	4GG/	-si-	4G/	-si-	4f\	-si-	4d/	-si-
2C/	-mus	2C/	-mus	2G/	-mus	2e\	-mus	2e/	-mus
!	!	!LO:LB:g=original	!	!	!	!LO:LB:g=original	!	!	!
=96	=96	=96	=96	=96	=96	=96	=96	=96	=96
1BB	Je-	1BB	Je-	1G	Je-	1f	Je-	1dd	Je-
2C/	-su	2C/	-su	2G/	-su	2e\	-su	2cc\	-su
=97	=97	=97	=97	=97	=97	=97	=97	=97	=97
*	*ij	*	*ij	*	*ij	*	*ij	*	*ij
1D	Je-	1D	Je-	1G	Je-	1f	Je-	1b	Je-
2C/	-su	2C/	-su	2G/	-su	2e\	-su	2cc\	-su
*	*Xij	*	*Xij	*	*Xij	*	*Xij	*	*Xij
=98	=98	=98	=98	=98	=98	=98	=98	=98	=98
2F\	Chris-	2F\	Chris-	1.G	Chri-	2e\	Chris-	1cc	Chris-
2G\	.	2G\	.	.	.	1d	.	.	.
2GG/	.	2GG/	.	.	.	.	.	2b\	.
=99	=99	=99	=99	=99	=99	=99	=99	=99	=99
1.C	-te	1.C	-te	1.G	-ste	1.e	-te	1.cc	-te
=100	=100	=100	=100	=100	=100	=100	=100	=100	=100
4G\	Cum	(4G\	Cum	4G/	cum	4g\	cum	4gg\	Cum
4A\	.	4A\)	.	4A/	.	4a\	.	4aa\	.
4G\	San-	(4G\	San-	4G/	San-	4g\	San-	(4gg\	San-
4E\	.	4E\)	.	4E/	.	4e\	.	4ee\)	.
4F\	-cto	(4F\	-cto	4F/	-cto	4f\	-cto	(4ff\	-cto
4D\	.	4D\)	.	4D/	.	4d\	.	4dd\)	.
!LO:LB:g=original	!	!	!	!	!	!	!	!LO:LB:g=original	!
=101	=101	=101	=101	=101	=101	=101	=101	=101	=101
2.C/	Spi-	2.C/	Spi-	2.C/	SPi-	2.c/	Spi-	2.cc\	Spi-
4C/	-ri-	4C/	-ri-	4C/	-ri-	4c/	-ri-	4cc\	-ri-
2GG/	-tu	2GG/	-tu	2G/	-tu	2G/	-tu	2g/	-tu
=102	=102	=102	=102	=102	=102	=102	=102	=102	=102
2C/	in	2C/	in	2G/	in	2e\	in	2cc\	in
4E/	glo-	4E/	glo-	4G/	glo-	4e\	glo-	4cc\	glo-
4E/	-ri-	4E/	-ri-	4G/	-ri-	4e\	-ri-	4cc\	-ri-
2G\	-a	2G\	-a	2G/	-a	2d\	-a	2b\	-a
=103	=103	=103	=103	=103	=103	=103	=103	=103	=103
2C/	De-	(2C/	De-	1G	De-	1e	De-	1cc	De-
2E/	.	2E/)	.	.	.	.	.	.	.
2G\	i	2G\	i	2G/	-i	2d\	-i	2b\	-i
!	!	!LO:LB:g=original	!	!	!	!	!	!	!
=104	=104	=104	=104	=104	=104	=104	=104	=104	=104
1C	Pa-	1C	Pa-	1G	Pa-	1e	Pa-	1cc	Pa-
2GG/	-tris	2GG/	-tris	2B\	-tris	2f\	-tris	2dd\	-tris
!	!	!	!	!LO:LB:g=original	!	!	!	!	!
=105	=105	=105	=105	=105	=105	=105	=105	=105	=105
2C/	a-	2C/	a-	2G/	a-	(2e\	a-	2cc\	a-
2G\	.	2G\	.	2B\	.	2f\)	.	2dd\	.
2GG/	-men	2GG/	-men	2G/	-men	2d\	-men	2b\	-men
!	!	!	!	!	!	!LO:LB:g=original	!	!	!
=106	=106	=106	=106	=106	=106	=106	=106	=106	=106
*	*ij	*	*ij	*	*ij	*	*	*	*ij
1C	a-	1C	a-	1G	a-	2c\	a-	1ee	a-
.	.	.	.	.	.	4e\	.	.	.
.	.	.	.	.	.	4c\	.	.	.
2C/	-men	2C/	-men	2G/	-men	2g\	-men	2ee\	-men
*	*Xij	*	*Xij	*	*Xij	*	*	*	*Xij
=107	=107	=107	=107	=107	=107	=107	=107	=107	=107
2C/	a-	2C/	a-	2c\	a-	2c/	a-	2cc\	a-
4E/	.	4E/	.	4e\	.	4e/	.	4ee\	.
4C/	.	4C/	.	4c\	.	4c/	.	4cc\	.
2GG/	-men	2GG/	-men	2G/	-men	2G/	-men	2g/	-men
=108	=108	=108	=108	=108	=108	=108	=108	=108	=108
2F\	a-	2F\	a-	1.G	a-	2c\	a-	1cc	a-
2G\	.	2G\	.	.	.	1d	.	.	.
2GG/	.	2GG/	.	.	.	.	.	2b\	.
=109	=109	=109	=109	=109	=109	=109	=109	=109	=109
1.C	-men	1.C	-men	1.G	-men	1.e	-men.	1.cc	-men
==	==	==	==	==	==	==	==	==	==
*-	*-	*-	*-	*-	*-	*-	*-	*-	*-
!!!system-decoration: [(s1,s2,s3,s4)]s5
!!!RDF**kern: > = above
!!!RDF**kern: | = vertical stroke
!!!ENC: Andrzej Kubiczek
!!!END: 2021-08-07
!!!ENC: Krzysztof Stępień
!!!END: 2021-07-14
